X:1
T:Aire
T:Aire
T:Thomas Morley
C:Thomas Morley
%%score 1 2 3
L:1/8
M:4/4
K:Ab
V:1 treble transpose=-2 nm="B♭ Clarinet" snm="B♭ Cl."
V:2 treble transpose=-2 nm="B♭ Clarinet" snm="B♭ Cl."
V:3 treble nm="Flute" snm="Fl."
V:1
[K:Bb] c8 | c4 d4 | c4 c2 B2- | B2 A2 G4 | A2 AB c4- | c2 BA G2 F2 | G8 | G2 GA B4 | z2 Bc d4- | %9
 d2 cB A2 B2 | c2 BA G2 c2 | B2 A2 A2 GF | G8 | F8 | c8 | c4 d4 | c4 c2 B2- | B2 A2 G4 | %18
 A2 AB c4- | c2 BA G2 F2 | G8 | G2 GA B4 | z2 Bc d4- | d2 cB A2 B2 | c2 BA G2 c2 | B2 A2 A2 GF | %26
 G8 | F8 | z2 f2 fedc | B2 c2 d2 d2 | c2 BA G2 F2 | G4 G2 c2 | B2 A2 G4 | A4 z4 | z2 f2 e2 d2 | %35
 c3 d B2 c2 | d4 d2 d2 | cBAG A4 | G4 z2 e2 | d2 c2 B4 | A4 z2 c2 | d2 =e2 f2 d2 | =e2 f4 e2 | %43
 f4 z2 c2- | c2 B4 A2 | G2 B2 G3 A | F3 F G3 G | F8 | z2 f2 fedc | B2 c2 d2 d2 | c2 BA G2 F2 | %51
 G4 G2 c2 | B2 A2 G4 | A4 z4 | z2 f2 e2 d2 | c3 d B2 c2 | d4 d2 d2 | cBAG A4 | G4 z2 e2 | %59
 d2 c2 B4 | A4 z2 c2 | d2 =e2 f2 d2 | =e2 f4 e2 | f4 z2 c2- | c2 B4 A2 | G2 B2 G3 A | F3 F G3 G | %67
 F8- | F8 |] %69
V:2
[K:Bb] A8 | A4 B4 | A4 A2 G2- | G2 F2 =E4 | F2 FG A4- | A2 GF =E2 F2 | =E8 | =E2 EF G4 | %8
 z2 DE F2 z2 | F6 G2 | A2 GF =E2 F2 | D2 =E2 F4- | F2 =ED E4 | F8 | A8 | A4 B4 | A4 A2 G2- | %17
 G2 F2 =E4 | F2 FG A4- | A2 GF =E2 F2 | =E8 | =E2 EF G4 | z2 DE F2 z2 | G6 G2 | A2 GF =E2 F2 | %25
 D2 =E2 F4- | F2 =ED E4 | F2 c2 cBAG | A2 Fc dcBA | A2 Fc dcBA | A2 GF =E2 F2 | =E4 E2 A2 | %32
 GF F4 =E2 | F2 c2 B2 A2 | G2 F2 GABG | A3 B G2 A2 | B4 B2 B2 | AG G4 ^F2 | G2 B2 A2 G2- | %39
 GF F4 =E2 | F3 G AB z2 | =B2 c4 B2 | c2 A2 G4 | F2 cB AGFG | A2 G4 F2 | =E2 G2 E3 F | D3 F =E3 E | %47
 F2 cB AGFG | A2 Fc dcBA | G2 A2 B2 B2 | A2 GF =E2 F2 | =E4 E2 A2 | GF F4 =E2 | F2 c2 B2 A2 | %54
 G2 F2 GABG | A3 B G2 A2 | B4 B2 B2 | AG G4 ^F2 | G2 B2 A2 G2- | GF F4 =E2 | F3 G AB c2 | %61
 =B2 c4 B2 | c2 A2 G4 | F2 cB AGFG | A2 G4 F2 | =E2 G2 E3 F | D3 F =E3 E | F8- | F8 |] %69
V:3
 e8 | e4 A4 | e4 B2 d2- | d2 e2 B4 | E4 z2 EF | G2 A2 B2 c2 | B8 | B4 z2 FG | A4 z2 AB | c8 | %10
 B6 G2 | A2 B2 c4 | B8 | E8 | e8 | e4 A4 | e4 B2 d2- | d2 e2 B4 | E4 z2 EF | G2 A2 B2 c2 | B8 | %21
 B4 z2 FG | A4 z2 AB | c8 | B6 G2 | A2 B2 c4 | B8 | E4 z2 e2 | edcB A2 A2 | d2 B2 A2 F2 | %30
 G2 A2 B2 c2 | B4 B2 G2 | A2 E2 B4 | E4 z2 e2 | d2 c2 B2 A2 | e3 c d2 B2 | A4 A2 A2 | B2 d2 c4 | %38
 F4 z2 B2 | A2 G2 F4 | E2 e4 d2 | c2 B2 c4 | B4 z2 B2 | G3 A BAGF | E2 F2 =D2 E2 | B2 F2 B3 G | %46
 A3 c B3 B | E4 z2 e2 | edcB A2 A2 | d2 B2 A2 F2 | G2 A2 B2 c2 | B4 B2 G2 | A2 E2 B4 | E4 z2 e2 | %54
 d2 c2 B2 A2 | e3 c d2 B2 | A4 A2 A2 | B2 d2 c4 | F4 z2 B2 | A2 G2 F4 | E2 e4 d2 | c2 B2 c4 | %62
 B4 z2 B2 | G3 A BAGF | E2 F2 =D2 E2 | B2 F2 B3 G | A3 c B3 B | E8- | E8 |] %69

